X:1
T:The Newmarket
R:polka
M:2/4
L:1/8
K:A
|:ef/e/ cd/c/|BE A>c|BE AB|cB Bc|
|ef/e/ cd/c/|BE A>c|BE AB|1 cA Ac:|2 cA A2|]
|:ef/g/ aa|gf ff/e/|ce fg|fe e2|
|ef/g/ aa|gf ff/e/|ce fg|a2 af:|